assets/icons/header/inicio-active.svg

<svg preserveAspectRatio="none" width="100%" height="100%" overflow="visible" style="display: block;" viewBox="0 0 24 24" fill="none" xmlns="http://www.w3.org/2000/svg">
<g id="family_home">
<mask id="mask0_0_174" style="mask-type:alpha" maskUnits="userSpaceOnUse" x="0" y="0" width="24" height="24">
<rect id="Bounding box" width="24" height="24" fill="var(--fill-0, #D9D9D9)"/>
</mask>
<g mask="url(#mask0_0_174)">
<path id="family_home_2" d="M12 17.1692C12.1142 17.1692 12.2206 17.1516 12.3192 17.1163C12.4179 17.0811 12.5112 17.0265 12.599 16.9525C13.0677 16.5238 13.5132 16.1051 13.9355 15.6963C14.358 15.2873 14.7274 14.8859 15.0437 14.4923C15.3601 14.0986 15.6139 13.7158 15.8052 13.344C15.9966 12.9723 16.0922 12.6115 16.0922 12.2615C16.0922 11.6167 15.8723 11.0818 15.4325 10.6568C14.9925 10.2318 14.4646 10.0193 13.8488 10.0193C13.4676 10.0193 13.1203 10.0972 12.8068 10.253C12.4933 10.4087 12.2243 10.609 12 10.854C11.7885 10.609 11.5193 10.4087 11.1923 10.253C10.8654 10.0972 10.5257 10.0193 10.1732 10.0193C9.55675 10.0193 9.02825 10.2314 8.58775 10.6557C8.14725 11.0801 7.927 11.6142 7.927 12.258C7.927 12.6092 8.02092 12.9716 8.20875 13.3453C8.39658 13.7189 8.64883 14.1019 8.9655 14.4943C9.28217 14.8866 9.65117 15.2876 10.0725 15.6973C10.4938 16.1068 10.937 16.5237 11.402 16.948C11.4892 17.025 11.5821 17.0811 11.6808 17.1163C11.7794 17.1516 11.8858 17.1692 12 17.1692ZM6.30775 20.5C5.81058 20.5 5.385 20.323 5.031 19.969C4.677 19.615 4.5 19.1894 4.5 18.6923V11.2403L3.23075 12.227C3.05508 12.3552 2.86917 12.4058 2.673 12.3788C2.477 12.3519 2.31483 12.2507 2.1865 12.075C2.05833 11.8993 2.00867 11.7134 2.0375 11.5173C2.06633 11.3211 2.1635 11.1589 2.329 11.0307L10.8905 4.4635C11.0567 4.343 11.2342 4.25258 11.4232 4.19225C11.6122 4.13208 11.805 4.102 12.0015 4.102C12.198 4.102 12.3893 4.13208 12.5753 4.19225C12.7613 4.25258 12.9362 4.343 13.1 4.4635L21.6865 11.0307C21.8518 11.1589 21.9464 11.3211 21.9702 11.5173C21.9939 11.7134 21.9417 11.8999 21.8135 12.0768C21.6852 12.2409 21.523 12.3365 21.327 12.3635C21.1308 12.3903 20.95 12.3397 20.7845 12.2115L19.5 11.2403V18.6923C19.5 19.1894 19.323 19.615 18.969 19.969C18.615 20.323 18.1894 20.5 17.6922 20.5H6.30775Z" fill="var(--fill-0, #2B619E)"/>
</g>
</g>
</svg>

<svg xmlns="http://www.w3.org/2000/svg" fill="none" overflow="visible" preserveAspectRatio="none" style="display:block" viewBox="0 0 24 24"><mask id="a" width="24" height="24" x="0" y="0" maskUnits="userSpaceOnUse" style="mask-type:alpha"><path fill="var(--fill-0, #d9d9d9)" d="M0 0h24v24H0z"/></mask><g mask="url(#a)"><path fill="var(--fill-0, #2b619e)" d="M12 17.17a.9.9 0 0 0 .599-.217q.703-.644 1.336-1.257t1.109-1.204q.474-.59.761-1.148t.287-1.082q0-.967-.66-1.605a2.2 2.2 0 0 0-1.583-.638q-.572 0-1.042.234a2.7 2.7 0 0 0-.807.601 2.4 2.4 0 0 0-.808-.601 2.34 2.34 0 0 0-1.019-.234q-.925 0-1.585.637-.66.636-.661 1.602 0 .527.282 1.087t.757 1.15 1.107 1.202q.63.615 1.329 1.251a.85.85 0 0 0 .598.221M6.308 20.5a1.74 1.74 0 0 1-1.277-.531 1.74 1.74 0 0 1-.531-1.277V11.24l-1.27.987a.75.75 0 0 1-.557.152.7.7 0 0 1-.486-.304.737.737 0 0 1 .142-1.044l8.561-6.568a1.87 1.87 0 0 1 2.21 0l8.587 6.568q.248.192.283.486a.77.77 0 0 1-.156.56.73.73 0 0 1-.487.287.7.7 0 0 1-.543-.153l-1.284-.97v7.451q0 .746-.531 1.277a1.74 1.74 0 0 1-1.277.531z"/></g></svg>
